X:671
T:Angus and Alice
R:strathspey
C:Paul S. Cranford
O:20th Century Cape Breton
D:The Lighthouse, Cranford Publications
B:The Lighthouse Collection, ISBN 0-9691181-5-5
N:http://www.cranfordpub.com
H:Composed for Angus and Alice MacEachern.
L:1/8
Q:266
M:C
K:G
g>BG>B A<BG>B|d/c/B/A/ G>B A<BE>f|g>BG>B A<BG>B|c>AB<d e2 e>f:|!
g>ba<b g>BG>B|A>cB>d c>ed<f|g>ba<b g>BG>B|c>AB<d e2 (3eff|!
g>ba<b g>BG>B|A>cB<d c>ed>f|g>ba<b a>fg>f|e>dB>d e2 e>f|]!


